X:1501
T:Aberdaugleddau
R:Jig
C:Trad.
O:Wales
Z:Paul Hardy's Possible Tunebook 2015 (see www.paulhardy.net). Creative Commons cc by-nc-sa licenced.
M:6/8
L:1/8
Q:3/8=100
K:C
"C"CDE E2D|C3 G,3|"G"EFG G2F|"C"E3 C3|c2B c2G|"F"A2B "C"c2E|"Dm"F2E D2C|"G7"D3 G,3|
"C"cde e2d|c3 G3|"G"efg g2f|"C"e3 c3|c'2b c'2g|"F"a2b c'2f|"C"e3 "G7"d3|"C"c3-c3||
"C"C2E G2E|"G7"DB,G, G,A,B,|"C"C2EG2E|"G7"D3G,3|"C"C2E G2E|"F"A2F E2D|"C"EFG "G7"G,A,B,|"C"C3 C3|
"C"cde g2e|"G7"dBG GAB|"C"c2e g2e|"G7"d3 G3|"C"c2e g2e|"F"a2f e2d|"C"efg "G7"GAB|"C"c3 c3|]

